X: 33555
T: Rakes Of Clonmel, The
R: jig
M: 6/8
K: Aminor
|:Aaa aea|age e2f|gfg ege|dBG GAB|
cBc dcd|edc Bcd|ecA GED|EFG A2G:|
|:aea aed|^cAA A2f|

